dist/svgs/unicons/line/clapper-board.svg

<svg xmlns="http://www.w3.org/2000/svg" viewBox="0 0 24 24"><path d="M19 2H5a3 3 0 00-3 3v14a3 3 0 003 3h14a3 3 0 003-3V5a3 3 0 00-3-3zm-2.91 2l-4 4H7.91l4-4zM4 5a1 1 0 011-1h4.09l-4 4H4zm16 14a1 1 0 01-1 1H5a1 1 0 01-1-1v-9h16zm0-11h-5.09l4-4H19a1 1 0 011 1z"/></svg>

<svg xmlns="http://www.w3.org/2000/svg" viewBox="0 0 24 24"><path d="M19,2H5A3,3,0,0,0,2,5V19a3,3,0,0,0,3,3H19a3,3,0,0,0,3-3V5A3,3,0,0,0,19,2ZM16.09,4l-4,4H7.91l4-4ZM4,5A1,1,0,0,1,5,4H9.09l-4,4H4ZM20,19a1,1,0,0,1-1,1H5a1,1,0,0,1-1-1V10H20ZM20,8H14.91l4-4H19a1,1,0,0,1,1,1Z"/></svg>
